src/assets/healthcare.svg

<svg width="105" height="104" viewBox="0 0 105 104" fill="none" xmlns="http://www.w3.org/2000/svg">
<path d="M104.929 19.4651C104.621 20.5908 104.371 21.7368 103.996 22.84C102.731 26.5724 100.306 29.4202 97.1095 31.6755C96.8799 32.2148 96.3981 32.4927 95.9122 32.7276C91.3014 35.0116 86.5634 35.4488 81.6819 33.6735C81.2719 33.5223 80.8332 33.3834 80.6855 32.889C80.7696 32.3865 81.2329 32.3211 81.5835 32.1597C87.0083 29.6388 90.1287 25.3609 91.2645 19.5673C91.3239 19.267 91.3506 18.9544 91.6007 18.7358C92.0292 18.4539 92.5171 18.5111 92.9907 18.4907C93.3656 18.4963 93.7399 18.4586 94.106 18.3783C94.7457 18.1985 95.1024 17.7961 95.0819 17.1219C95.0614 16.413 94.5693 16.127 93.9604 16.0004C93.2634 15.8574 92.5253 16.078 91.8447 15.7389C91.4346 15.4161 91.367 14.936 91.2911 14.4662C90.3918 8.934 87.4819 4.79918 82.5615 2.0617C82.1842 1.85741 81.725 1.73075 81.5364 1.27519C84.097 0.0188051 86.8525 -0.181402 89.5936 0.129118C96.8328 0.946277 102.452 5.86353 104.406 12.8421C104.611 13.5489 104.562 14.3109 104.927 14.9728L104.929 19.4651Z" fill="#D6DAE8"/>
<path d="M0 67.8634C0.436147 67.6892 0.904021 67.6078 1.37361 67.6244C5.33045 67.6244 9.28935 67.6244 13.2482 67.6244C14.6055 67.6244 14.6588 67.6939 14.6834 69.0892C14.6834 69.4978 14.7387 69.9063 14.7695 70.3006C15.1364 70.6724 15.1795 71.1423 15.1795 71.6285C15.1795 77.273 15.2082 82.9175 15.159 88.5621C15.159 89.7735 14.8781 90.9809 14.7223 92.1882C14.3697 92.703 13.8264 92.7725 13.2728 92.7745C9.35564 92.7936 5.43842 92.7936 1.52122 92.7745C0.869259 92.7745 0.29111 92.6213 0.0102359 91.9574L0 67.8634Z" fill="#414141"/>
<path d="M0 91.9614C0.377533 92.2509 0.846705 92.3958 1.32235 92.37C5.37555 92.3537 9.42877 92.37 13.482 92.37C13.8564 92.3963 14.2314 92.3259 14.5706 92.1657C14.9232 92.4435 14.8228 92.846 14.8556 93.2117C14.8715 93.4205 14.8392 93.6301 14.7613 93.8245C14.7613 94.4374 14.7285 95.0503 14.7346 95.6632C14.7346 96.3332 14.4476 96.6662 13.7546 96.6642C9.44926 96.6642 5.16439 96.6642 0.869273 96.6519C0.573228 96.6193 0.281704 96.5542 0 96.4578V91.9614Z" fill="black"/>
<path d="M80.7317 32.7542C82.0356 33.5959 83.522 33.9044 85.0166 34.1414C89.1169 34.7931 92.9651 33.9963 96.5468 31.9044C96.7308 31.8124 96.9213 31.7339 97.1167 31.6695C101.877 41.8839 99.6815 54.7746 91.7863 62.8379C84.5423 70.2359 77.2983 77.6285 70.0544 85.0156C69.8207 85.2567 69.3799 85.3915 69.4557 85.8634C69.4557 86.2842 69.0969 86.3394 68.8161 86.3864C66.3374 86.795 63.9182 87.5835 61.3555 87.4548C58.721 87.322 56.1788 86.6377 53.5976 86.2168C51.8509 85.9267 50.1123 85.6203 48.3738 85.2587C47.9637 85.175 47.5721 85.0769 47.2769 84.7582C47.0124 84.1453 46.5389 83.8471 45.8931 83.6939C45.1218 83.515 44.4378 83.0726 43.9597 82.4436C42.9961 81.2179 43.3918 79.9921 43.9966 78.8175C44.5051 77.8287 45.5281 77.7306 46.4794 77.7388C47.8079 77.7388 49.1118 78.0759 50.4363 78.2066C51.4613 78.3088 52.4618 78.4783 53.4828 78.5478C54.0674 78.6208 54.6572 78.4599 55.123 78.1004C55.5094 77.9583 55.9292 77.932 56.3305 78.0248C57.4512 78.1719 58.5901 78.0948 59.6805 77.7981C61.5257 77.3445 62.9608 76.368 63.459 74.4579C63.9777 72.4498 63.0879 70.8624 61.6569 69.555C60.6166 68.6028 59.3222 67.9707 57.9296 67.7347C54.1348 67.0688 50.3809 66.1188 46.5266 65.8512C44.1709 65.6878 41.8296 66.1025 39.5088 66.4865C35.5356 67.1444 31.5808 67.9002 27.6014 68.5294C27.1462 68.6009 26.6644 68.8032 26.2359 68.4252C26.2852 67.9636 25.8751 67.8001 25.6352 67.5427C23.4702 65.2302 21.0859 63.1178 19.1075 60.6336C10.7017 50.0678 11.3496 33.9023 20.7005 24.17C26.5168 18.1169 33.6883 16.8278 41.602 18.9504C46.6762 20.313 50.8709 23.1608 54.5181 26.885C56.5232 28.9279 56.3079 28.8973 58.2905 26.885C61.8086 23.3018 65.8761 20.5929 70.6694 19.0382C71.0795 19.2425 71.0528 19.6511 71.1184 20.0025C72.1045 25.3365 75.0138 29.2956 79.7066 31.9963C80.0551 32.2027 80.5103 32.3314 80.7317 32.7542Z" fill="#2ECC82"/>
<path d="M26.2135 68.4252C30.3897 67.6918 34.57 66.9789 38.7421 66.2169C40.7776 65.857 42.8306 65.6033 44.8926 65.4569C46.7911 65.3098 48.6814 65.6428 50.5532 66.0003C53.1836 66.5008 55.8406 66.8869 58.4505 67.4794C60.8225 68.0187 62.7066 69.3793 63.6292 71.6816C64.5518 73.984 63.7707 76.6336 60.7405 77.8593C58.922 78.5948 57.0297 78.5743 55.123 78.2883C54.4588 78.5519 53.7822 78.4313 53.1097 78.3455C51.0165 78.0841 48.9274 77.8062 46.83 77.5754C44.9849 77.3711 43.5313 78.3476 43.2422 79.9574C42.8814 81.9553 43.7589 83.4058 45.6471 83.9472C46.2293 84.1126 46.8772 84.1086 47.3364 84.5886C49.2164 85.1811 51.1703 85.416 53.1016 85.7347C56.1768 86.2393 59.1885 87.1361 62.3479 87.081C64.2709 87.0462 66.0956 86.4681 67.9612 86.1433C68.4512 86.0575 68.9863 86.1964 69.4394 85.8695C73.5562 85.0524 77.6627 84.1862 81.7958 83.461C83.3478 83.1893 84.8198 82.556 86.4169 82.5314C87.2012 82.4242 87.9965 82.4242 88.7808 82.5314C89.4663 82.6096 90.1281 82.8288 90.7242 83.1752C91.3203 83.5216 91.8377 83.9876 92.2435 84.5437C92.834 85.9104 92.6208 86.7071 91.4624 87.6652C90.3594 88.5784 89.0617 89.081 87.7208 89.5038C80.8507 91.6673 74.0031 93.9022 67.133 96.0615C63.2376 97.2873 59.4017 98.8051 55.3608 99.561C52.2487 100.143 49.1078 100.174 46.0325 99.3567C37.5817 97.1218 29.1514 94.8235 20.719 92.5253C19.1691 92.1045 17.615 91.7081 16.0733 91.2587C15.4152 91.0687 15.1159 91.2219 15.1077 91.9451C15.1077 92.4272 15.2409 92.9931 14.6751 93.3159C14.6382 92.9318 14.6033 92.5478 14.5664 92.1637C14.9026 84.8787 14.6525 77.5897 14.7571 70.3047C16.5141 69.9921 18.269 69.6591 20.0301 69.3711C22.0906 69.0299 24.153 68.7378 26.2135 68.4252Z" fill="#F5F1EF"/>
<path d="M80.7316 32.7541C79.0915 32.2516 77.7158 31.2383 76.4632 30.1413C74.0411 28.0569 72.2576 25.3345 71.3172 22.2863C71.0025 21.2214 70.7776 20.1322 70.6448 19.03C69.999 11.222 74.087 4.3497 81.1478 1.38137C81.2752 1.33762 81.4054 1.30214 81.5374 1.27515C84.9714 2.61324 87.4706 5.01773 89.3813 8.09637C90.8042 10.3885 91.5033 12.9135 91.8067 15.5672C91.1281 16.1801 90.3367 16.0575 89.6028 15.7838C88.8688 15.51 88.9877 14.7971 88.9652 14.1965C88.9324 13.2465 88.9857 12.2925 88.9364 11.3364C88.8893 10.4294 88.4711 9.92681 87.7986 9.90638C87.0729 9.87982 86.5685 10.3803 86.5008 11.3099C86.4188 12.3599 86.5008 13.4161 86.4557 14.4682C86.4065 15.6101 86.1154 15.8982 84.9714 15.9615C83.9463 16.0126 82.9212 15.9513 81.8961 15.9942C80.9326 16.0371 80.4036 16.46 80.377 17.1689C80.3524 17.841 80.9141 18.3558 81.8428 18.4253C82.8679 18.5029 83.893 18.4253 84.9181 18.4682C86.1236 18.5192 86.4106 18.8114 86.4598 20.0085C86.4906 20.8257 86.4598 21.6428 86.4762 22.46C86.4551 22.7658 86.4765 23.0731 86.5398 23.3732C86.7223 23.986 86.9949 24.5621 87.7699 24.511C88.5449 24.46 88.8934 23.9349 88.9344 23.2056C88.9898 22.223 88.9344 21.2363 88.9652 20.2516C89.0103 18.5111 90.0805 17.9493 91.6119 18.8563C91.4438 22.2046 90.0107 25.0463 88.0077 27.6408C86.3611 29.7687 84.19 31.4359 81.7055 32.4804C81.4047 32.6412 81.0724 32.7346 80.7316 32.7541Z" fill="#F5F1EF"/>
<path d="M14.6793 93.3118C14.7371 92.739 14.7583 92.1631 14.7428 91.5876C14.669 90.7357 14.9478 90.5212 15.7679 90.7704C18.0907 91.4405 20.4259 92.0575 22.759 92.6928C28.11 94.1473 33.463 95.6019 38.818 97.0564C41.2475 97.7163 43.6749 98.3864 46.1146 99.0094C47.4616 99.3547 48.8537 99.3526 50.2273 99.4813C52.9622 99.7388 55.5434 99.3057 58.0918 98.5457C61.9768 97.3894 65.8189 96.0942 69.6834 94.8685C75.6549 92.9618 81.6292 91.066 87.6061 89.1811C88.8711 88.7725 90.0786 88.2944 91.1734 87.4732C92.2231 86.6846 92.5409 85.7756 92.2436 84.5662C93.2564 86.0268 93.0329 87.5202 92.2887 88.9788C91.4379 90.6438 90.0069 91.6448 88.256 92.2066C79.5783 94.9945 70.8992 97.7769 62.2188 100.554C59.5084 101.42 56.8227 102.38 53.9873 102.815C51.1519 103.25 48.3637 102.969 45.6021 102.217C35.3266 99.418 25.047 96.6261 14.7633 93.8409C14.6947 93.773 14.6496 93.6852 14.6345 93.59C14.6194 93.4949 14.6351 93.3975 14.6793 93.3118Z" fill="#D6DAE8"/>
<path d="M88.7858 82.5375H86.4199C87.1921 82.3107 88.0136 82.3107 88.7858 82.5375Z" fill="#E79787"/>
<path d="M91.6093 18.8522C89.3541 18.7419 89.3541 18.7419 89.3541 20.938C89.3541 21.6878 89.3684 22.4355 89.3541 23.1852C89.3254 24.2843 88.739 24.9462 87.8124 24.9809C86.8344 25.0157 86.1722 24.3476 86.1415 23.2016C86.1107 22.0555 86.0964 20.8849 86.1415 19.7286C86.1722 19.0034 85.9057 18.7766 85.1984 18.8052C84.0728 18.8522 82.9432 18.8359 81.8176 18.8052C80.647 18.7766 79.952 18.1699 79.9397 17.222C79.9253 16.2128 80.6285 15.6102 81.8607 15.5979C82.9186 15.5856 83.9806 15.5468 85.0364 15.6102C85.8565 15.6592 86.205 15.4263 86.1456 14.5438C86.0738 13.461 86.1087 12.3681 86.1456 11.2751C86.1763 10.0351 86.7893 9.3875 87.839 9.42223C88.8087 9.45287 89.3479 10.1127 89.3602 11.3262C89.3725 12.4498 89.4054 13.5734 89.3602 14.6949C89.3233 15.4324 89.6042 15.6653 90.3013 15.5979C90.8097 15.5468 91.3264 15.5673 91.8369 15.555C92.5175 15.5673 93.1982 15.555 93.887 15.5938C94.9265 15.6408 95.5456 16.221 95.562 17.1301C95.5784 18.0392 95.0208 18.6949 93.9957 18.7848C93.1797 18.8665 92.4027 18.8379 91.6093 18.8522Z" fill="#126F43"/>
<path d="M56.6079 43.0544L52.8724 49.5508C52.1262 50.8501 51.4045 52.1617 50.6172 53.4323C49.8156 54.7521 48.5445 54.7643 47.6834 53.4752C47.0581 52.5416 46.4759 51.5815 45.8731 50.6336C45.2929 49.7184 44.7086 48.795 44.0116 47.7102C43.2079 49.036 42.4022 50.1984 41.7748 51.4487C41.1085 52.7847 40.1654 53.2587 38.6709 53.2015C35.8744 53.0912 33.0718 53.1749 30.2651 53.1647C29.035 53.1647 28.2847 52.5396 28.3195 51.5713C28.3523 50.6336 29.0535 50.0718 30.2508 50.0677C32.8463 50.0677 35.4418 50.0452 38.0414 50.0677C38.3082 50.0949 38.5769 50.0388 38.8102 49.907C39.0434 49.7752 39.2298 49.5743 39.3433 49.3322C40.3274 47.6203 41.3689 45.9431 42.396 44.2577C43.333 42.7194 44.5856 42.699 45.5697 44.2209C46.5538 45.7429 47.4948 47.273 48.4584 48.7991C48.6368 49.081 48.8336 49.3527 49.096 49.7367C50.5311 47.2546 51.8965 44.8706 53.2661 42.4845C53.8422 41.4814 54.4121 40.4743 54.9944 39.4753C55.3573 38.8481 55.7365 38.2373 56.5997 38.2352C57.4628 38.2332 57.9138 38.8072 58.2911 39.4977C60.7103 43.9145 63.1384 48.3258 65.5753 52.7316C65.766 53.081 65.8788 53.4977 66.3462 53.7429C67.4677 51.8757 68.6732 50.0656 69.6736 48.1331C70.4384 46.6642 71.4614 46.1576 73.1036 46.2066C76.755 46.319 80.4104 46.2413 84.0638 46.2434C84.3708 46.23 84.6782 46.2362 84.9844 46.2618C85.827 46.3721 86.3723 46.8358 86.4523 47.6918C86.5363 48.5845 86.0136 49.0871 85.2099 49.3036C84.8444 49.3825 84.4702 49.4134 84.0966 49.3956C80.681 49.3956 77.2675 49.4364 73.8457 49.3772C72.8637 49.3608 72.3245 49.6816 71.853 50.5376C70.5757 52.8522 69.1878 55.1034 67.8531 57.3894C67.4615 58.0615 67.0617 58.6662 66.1617 58.6601C65.2617 58.654 64.8762 58.0472 64.501 57.3588C62.0982 52.9706 59.6865 48.5886 57.266 44.2127C57.104 43.9084 56.9133 43.5876 56.6079 43.0544Z" fill="#F5F1EF"/>
<path d="M47.339 84.5805C46.5584 84.5687 45.786 84.42 45.0572 84.1412C43.3104 83.4896 42.5785 82.0677 42.841 79.9492C43.005 78.607 44.4073 77.177 45.8937 77.128C47.1238 77.0892 48.3785 77.3547 49.6188 77.4998C51.1626 77.6816 52.6941 77.8879 54.2461 78.0595C54.551 78.0745 54.8499 78.1494 55.1256 78.2802C54.8837 78.8726 54.4224 79.0258 53.8217 78.9625C51.5357 78.7153 49.2478 78.4947 46.9844 78.0841C46.1438 77.9308 45.3729 78.2087 44.6123 78.4926C44.2945 78.6172 43.6016 80.7398 43.7041 81.0994C44.0977 82.4763 44.9854 83.273 46.4247 83.4385C47.091 83.5345 47.501 83.8471 47.339 84.5805Z" fill="#E17F85"/>
</svg>

<svg width="105" height="104" fill="none" xmlns="http://www.w3.org/2000/svg"><path d="M104.929 19.465c-.308 1.126-.558 2.272-.933 3.375-1.265 3.732-3.69 6.58-6.886 8.835-.23.54-.712.818-1.198 1.053-4.61 2.284-9.349 2.72-14.23.945-.41-.15-.849-.29-.996-.784.084-.503.547-.568.897-.73 5.425-2.52 8.546-6.798 9.681-12.592.06-.3.087-.613.337-.831.428-.282.916-.225 1.39-.245.375.005.749-.032 1.115-.113.64-.18.996-.582.976-1.256-.02-.709-.513-.995-1.122-1.122-.697-.143-1.435.078-2.115-.261-.41-.323-.478-.803-.554-1.273-.9-5.532-3.81-9.667-8.73-12.404-.377-.205-.836-.331-1.025-.787C84.097.02 86.853-.18 89.594.13c7.239.817 12.858 5.735 14.812 12.713.205.707.156 1.469.521 2.13l.002 4.493Z" fill="#D6DAE8"/><path d="M0 67.863a3.381 3.381 0 0 1 1.374-.239h11.874c1.357 0 1.41.07 1.435 1.465 0 .409.056.817.087 1.212.366.371.41.841.41 1.328 0 5.644.028 11.288-.021 16.933 0 1.212-.28 2.419-.437 3.626-.352.515-.896.584-1.45.587-3.916.019-7.834.019-11.75 0-.653 0-1.23-.154-1.512-.818L0 67.863Z" fill="#414141"/><path d="M0 91.961c.378.29.847.435 1.322.409 4.054-.016 8.107 0 12.16 0a2.19 2.19 0 0 0 1.089-.204c.352.278.252.68.285 1.046.015.209-.017.418-.095.612 0 .613-.032 1.226-.026 1.84 0 .67-.287 1.002-.98 1-4.306 0-8.59 0-12.886-.012A4.056 4.056 0 0 1 0 96.458V91.96Z" fill="#000"/><path d="M80.732 32.754c1.304.842 2.79 1.15 4.285 1.387 4.1.652 7.948-.145 11.53-2.237.184-.092.374-.17.57-.235 4.76 10.215 2.564 23.106-5.33 31.169-7.245 7.398-14.489 14.79-21.733 22.178-.233.24-.674.375-.598.847 0 .421-.36.476-.64.523-2.479.409-4.898 1.198-7.46 1.069-2.635-.133-5.177-.817-7.758-1.238a130.95 130.95 0 0 1-5.224-.958c-.41-.084-.802-.182-1.097-.5-.265-.614-.738-.912-1.384-1.065a3.39 3.39 0 0 1-1.933-1.25c-.964-1.226-.568-2.452.037-3.627.508-.988 1.531-1.086 2.482-1.078 1.329 0 2.633.337 3.957.468 1.025.102 2.026.271 3.047.34a2.232 2.232 0 0 0 1.64-.447 2.117 2.117 0 0 1 1.208-.075c1.12.147 2.26.07 3.35-.227 1.845-.454 3.28-1.43 3.778-3.34.519-2.008-.371-3.596-1.802-4.903a7.335 7.335 0 0 0-3.727-1.82c-3.795-.666-7.55-1.616-11.403-1.884-2.356-.163-4.697.252-7.018.636-3.973.657-7.928 1.413-11.908 2.042-.455.072-.937.274-1.365-.104.05-.461-.36-.625-.6-.882-2.166-2.313-4.55-4.425-6.528-6.91-8.406-10.565-7.758-26.73 1.593-36.463 5.816-6.053 12.987-7.342 20.901-5.22 5.074 1.363 9.269 4.21 12.916 7.935 2.005 2.043 1.79 2.012 3.773 0 3.518-3.583 7.585-6.292 12.378-7.847.41.204.384.613.45.965.986 5.334 3.895 9.293 8.588 11.993.348.207.803.335 1.025.758Z" fill="#2ECC82"/><path d="M26.213 68.425c4.177-.733 8.357-1.446 12.53-2.208a59.547 59.547 0 0 1 6.15-.76c1.898-.147 3.788.186 5.66.543 2.63.5 5.288.887 7.898 1.48 2.371.539 4.256 1.9 5.178 4.202.923 2.302.142 4.952-2.889 6.177-1.818.736-3.71.715-5.617.43-.664.263-1.34.142-2.013.056-2.093-.26-4.183-.539-6.28-.77-1.845-.204-3.299.773-3.588 2.382-.36 1.998.517 3.449 2.405 3.99.582.166 1.23.162 1.69.642 1.88.592 3.833.827 5.765 1.146 3.075.504 6.087 1.401 9.246 1.346 1.923-.035 3.748-.613 5.613-.938.49-.085 1.025.053 1.478-.273 4.117-.818 8.224-1.684 12.357-2.409 1.552-.272 3.024-.905 4.62-.93a8.728 8.728 0 0 1 2.365 0 4.995 4.995 0 0 1 3.462 2.013c.591 1.366.378 2.163-.78 3.121-1.104.913-2.401 1.416-3.742 1.839-6.87 2.163-13.718 4.398-20.588 6.557-3.895 1.226-7.731 2.744-11.772 3.5-3.112.582-6.253.613-9.328-.204-8.451-2.235-16.882-4.534-25.314-6.832-1.55-.42-3.104-.817-4.646-1.266-.658-.19-.957-.037-.965.686 0 .482.133 1.048-.433 1.37l-.109-1.151c.337-7.285.086-14.574.191-21.86 1.757-.312 3.512-.645 5.273-.933 2.06-.341 4.123-.633 6.183-.946Zm54.519-35.671c-1.64-.502-3.016-1.516-4.269-2.613a16.961 16.961 0 0 1-5.146-7.855 19.881 19.881 0 0 1-.672-3.256c-.646-7.808 3.442-14.68 10.503-17.649a3.13 3.13 0 0 1 .39-.106c3.433 1.338 5.933 3.743 7.843 6.821 1.423 2.293 2.122 4.818 2.426 7.471-.679.613-1.47.49-2.204.217-.734-.274-.615-.987-.638-1.588-.033-.95.02-1.903-.029-2.86-.047-.907-.465-1.41-1.137-1.43-.726-.026-1.23.474-1.298 1.404-.082 1.05 0 2.106-.045 3.158-.05 1.142-.34 1.43-1.485 1.493-1.025.052-2.05-.01-3.075.033-.963.043-1.492.466-1.519 1.175-.025.672.537 1.187 1.466 1.256 1.025.078 2.05 0 3.075.043 1.206.051 1.493.343 1.542 1.54.03.818 0 1.635.016 2.452-.02.306 0 .613.064.913.182.613.455 1.19 1.23 1.138.775-.051 1.123-.576 1.164-1.305.056-.983 0-1.97.031-2.954.045-1.74 1.115-2.303 2.647-1.396-.168 3.349-1.601 6.19-3.604 8.785a15.624 15.624 0 0 1-6.302 4.84c-.301.16-.634.254-.974.273Z" fill="#F5F1EF"/><path d="M14.68 93.312c.057-.573.078-1.149.063-1.724-.074-.852.205-1.067 1.025-.818 2.323.67 4.658 1.288 6.991 1.923l16.059 4.363c2.43.66 4.857 1.33 7.297 1.953 1.347.346 2.739.344 4.112.472 2.735.258 5.316-.175 7.865-.935 3.885-1.157 7.727-2.452 11.591-3.678a5258.592 5258.592 0 0 1 17.923-5.687c1.265-.409 2.473-.887 3.567-1.708 1.05-.788 1.368-1.697 1.07-2.907 1.013 1.46.79 2.954.046 4.413-.851 1.665-2.282 2.666-4.033 3.228a22479.85 22479.85 0 0 1-26.037 8.347c-2.71.866-5.396 1.826-8.232 2.261-2.835.435-5.623.154-8.385-.598-10.275-2.799-20.555-5.59-30.839-8.376a.453.453 0 0 1-.084-.53Z" fill="#D6DAE8"/><path d="M88.786 82.537H86.42a4.198 4.198 0 0 1 2.366 0Z" fill="#E79787"/><path d="M91.61 18.852c-2.256-.11-2.256-.11-2.256 2.086 0 .75.014 1.498 0 2.247-.029 1.1-.615 1.761-1.542 1.796-.978.035-1.64-.633-1.67-1.78a52.986 52.986 0 0 1 0-3.472c.03-.726-.236-.952-.944-.924a49.47 49.47 0 0 1-3.38 0c-1.171-.028-1.866-.635-1.878-1.583-.015-1.01.689-1.612 1.92-1.624 1.059-.012 2.12-.051 3.176.012.82.05 1.169-.184 1.11-1.066-.072-1.083-.037-2.176 0-3.269.03-1.24.643-1.888 1.693-1.853.97.03 1.509.69 1.521 1.904.013 1.124.045 2.247 0 3.369-.037.737.244.97.941.903.509-.051 1.025-.03 1.536-.043.68.012 1.361 0 2.05.039 1.04.047 1.659.627 1.675 1.536.016.91-.541 1.565-1.566 1.655-.816.081-1.593.053-2.387.067Z" fill="#126F43"/><path d="m56.608 43.054-3.736 6.497c-.746 1.3-1.468 2.61-2.255 3.881-.801 1.32-2.072 1.332-2.934.043-.625-.933-1.207-1.894-1.81-2.841-.58-.916-1.164-1.839-1.861-2.924-.804 1.326-1.61 2.488-2.237 3.739-.666 1.336-1.61 1.81-3.104 1.753-2.797-.11-5.6-.027-8.406-.037-1.23 0-1.98-.625-1.945-1.594.032-.937.733-1.5 1.93-1.503 2.596 0 5.192-.023 7.791 0a1.296 1.296 0 0 0 1.302-.736c.984-1.712 2.026-3.389 3.053-5.074.937-1.539 2.19-1.559 3.174-.037s1.925 3.052 2.888 4.578c.179.282.376.554.638.938 1.435-2.482 2.8-4.866 4.17-7.253.576-1.003 1.146-2.01 1.728-3.009.363-.627.742-1.238 1.606-1.24.863-.002 1.314.572 1.691 1.263 2.42 4.416 4.847 8.828 7.284 13.234.191.349.304.766.771 1.01 1.122-1.866 2.327-3.676 3.328-5.609.764-1.469 1.787-1.975 3.43-1.926 3.651.112 7.306.034 10.96.036.307-.013.614-.007.92.019.843.11 1.388.574 1.468 1.43.084.892-.438 1.395-1.242 1.612-.366.078-.74.11-1.113.092-3.416 0-6.83.04-10.251-.019-.982-.016-1.522.305-1.993 1.16-1.277 2.315-2.665 4.566-4 6.852-.391.672-.791 1.277-1.691 1.271-.9-.006-1.286-.613-1.661-1.301-2.403-4.388-4.815-8.77-7.235-13.146-.162-.305-.353-.625-.658-1.159Z" fill="#F5F1EF"/><path d="M47.339 84.58a6.669 6.669 0 0 1-2.282-.439c-1.747-.651-2.479-2.073-2.216-4.192.164-1.342 1.566-2.772 3.053-2.821 1.23-.039 2.485.227 3.725.372 1.544.182 3.075.388 4.627.56.305.014.604.09.88.22-.242.593-.704.746-1.304.683-2.286-.248-4.574-.468-6.838-.879-.84-.153-1.611.125-2.372.409-.318.124-1.01 2.247-.908 2.606.394 1.377 1.281 2.174 2.72 2.34.667.096 1.077.408.915 1.142Z" fill="#E17F85"/></svg>
